**kern	**kern
*part1	*part1
*staff2	*staff1
*I"Piano	*
*clefF4	*clefG2
*k[f#]	*k[f#]
=1	=1
4AA 4A	8cL 8a
.	8e
4E 4B	8d 8g#X
.	8eJ
=	=
2AA 2A	8cL 8a
.	8e
.	8c 8a
.	8eJ
=	=
2D 2A	8cL 8f#
.	8d
.	8c 8f#
.	8dJ
=	=
4GG 4G	8BL 8gn
.	8d
4C	8c 8a
.	8eJ
=	=
4D	8BL 8g
.	8d
4D	8c 8f#
.	8dJ
=	=
2GG 2G	8BL 8g
.	8d
.	8B 8g
.	8dJ
=:|!	=:|!
!	!LO:TX:a:t=Zum Schluss.
4GG 4G	4B 4g
4r	4r
==	==
*-	*-
!!!system-decoration: {(s1,s2)}
